X:1
T:Title
%%score { 1 | 2 }
L:1/8
Q:1/4=100
M:6/8
K:C
V:1 treble nm="Grand Piano"
V:2 bass 
V:1
 E2 E [DE]2 [DE] | [CE]3 E3 | A2 A A2 G | F6 | D2 D D2 D | D3 D3 | G2 G G2 F | E6 | %8
w: J.~H.~Leslie * * *||||||||
 E2 E [^G,DE]2 [G,DE] | [A,CE]3 [CE]3 | [CFA]2 [^CGA] [DFA]2 [DFB] | [CEc]6 | %12
w: ||||
 [CFA]2 [CFA] [^CGA]2 [CGA] | [DFA]3 [Fd]3 | c2 c [DB]2 [FB] | [Ec]6 |] %16
w: ||||
V:2
 [C,G,C]2 [C,G,C] [B,,^G,]2 [B,,G,] | [A,,A,]3 [A,C]3 | [F,A,C]2 [F,A,C] [E,A,^C]2 [E,A,C] | %3
 [D,A,D]6 | [G,B,]2 [G,B,] [^F,A,C]2 [F,A,C] | [G,B,]3 [F,G,B,]3 | %6
 [E,G,C]2 [E,G,C] [D,G,B,]2 [D,G,B,] | [C,G,C]6 | [C,G,C]2 [C,G,C] B,,2 B,, | A,,3 A,3 | %10
 F,2 C, D,2 G, | A,6 | F,2 F, E,2 E, | D,3 [D,A,]3 | [G,E]2 [G,E] [G,,G,]2 [G,,G,] | [C,G,]6 |] %16

